X:1
T: Tae Gar Ye Loup
C: Drummond Cook
Z: Tae Gar Ye Loup Book 1
Z: Arranged by Terry Traub, February 26, 2002
M: 4/4
L: 1/8
K: G
D>G | "G" B2 B2 "D"A2 B,>D | "G"G2 G2 "Bm"F3 D \
  | "C"E>D E<G "G"D>G B>d| "C"(3cdc "G"(3BdB "D"A2 D>G|
|"G"B2 B2 "D"A2 B,>D | "Em"G2 G2 "Bm"F3 D \
  | "C"E>F G>A "G"B>c d>e| "D"d2 F2 "G"G2 B>c||
| "G"d2 d2 "C"e>d c>B| "Am"c2 c2 "D"d>c B>A\
  | "G"B2 d2 "Em"g2 f>e| "D"(3fgf "A"(3ed^c "D"d2 B>=c|
|"G"d2 g2 "C"e>d c>B| "Am"c2 a2 "D"f>e d>c\
  | "G"B2 d2 "C"E>F G>A| "D"B2 F2 "G"G2 |]
